packages/core/src/svgs/torn.svg

<svg width="24" height="24" viewBox="0 0 24 24" fill="none" xmlns="http://www.w3.org/2000/svg">
<g clip-path="url(#clip0_31_19882)">
<path d="M0 0H24V24H0V0Z" fill="url(#paint0_linear_31_19882)"/>
<path fill-rule="evenodd" clip-rule="evenodd" d="M7.87293 8.3915C8.78707 7.14264 11.4536 4.91021 14.8038 5.9675C18.1544 7.02521 19.1881 10.1126 19.2858 11.5244C19.0818 10.4744 18.0429 8.27578 15.5208 7.87893C16.8879 8.87621 19.2751 11.7288 17.8844 15.1604C16.4932 18.5915 13.6299 19.3385 12.3721 19.2832C13.3895 19.2026 15.5499 18.3549 16.0531 15.6039C15.3562 16.5836 13.3188 18.4916 10.7444 18.2846C7.52578 18.0258 5.1215 15.8444 4.71436 12.8118C4.88064 13.7735 5.85393 15.7741 8.41378 16.0844C7.38393 15.4501 5.39878 13.3741 5.6945 10.1499C6.06478 6.11964 9.8195 4.76964 11.4845 4.71436C10.3406 4.89564 8.01736 5.88436 7.87293 8.3915ZM12.0001 14.5715C12.3378 14.5715 12.6721 14.505 12.9841 14.3758C13.2961 14.2465 13.5796 14.0571 13.8183 13.8183C14.0571 13.5796 14.2465 13.2961 14.3758 12.9841C14.505 12.6721 14.5715 12.3378 14.5715 12.0001C14.5715 11.6624 14.505 11.328 14.3758 11.016C14.2465 10.704 14.0571 10.4206 13.8183 10.1818C13.5796 9.94302 13.2961 9.75361 12.9841 9.62438C12.6721 9.49515 12.3378 9.42864 12.0001 9.42864C11.3181 9.42864 10.664 9.69956 10.1818 10.1818C9.69956 10.664 9.42864 11.3181 9.42864 12.0001C9.42864 12.6821 9.69956 13.3361 10.1818 13.8183C10.664 14.3006 11.3181 14.5715 12.0001 14.5715Z" fill="#92FFBE"/>
</g>
<defs>
<linearGradient id="paint0_linear_31_19882" x1="4.46486" y1="4.16229" x2="29.2059" y2="32.5787" gradientUnits="userSpaceOnUse">
<stop stop-color="#1A1E21"/>
<stop offset="1" stop-color="#06060A"/>
</linearGradient>
<clipPath id="clip0_31_19882">
<rect width="24" height="24" fill="white"/>
</clipPath>
</defs>
</svg>

<svg xmlns="http://www.w3.org/2000/svg" width="24" height="24" fill="none" viewBox="0 0 24 24"><g clip-path="url(#a)"><path fill="url(#b)" d="M0 0h24v24H0z"/><path fill="#92FFBE" fill-rule="evenodd" d="M7.873 8.392c.914-1.25 3.58-3.482 6.93-2.424 3.351 1.057 4.385 4.145 4.483 5.556-.204-1.05-1.243-3.248-3.765-3.645 1.367.997 3.754 3.85 2.363 7.281-1.39 3.432-4.254 4.179-5.512 4.123 1.018-.08 3.178-.928 3.681-3.68-.697.98-2.734 2.889-5.309 2.682-3.218-.26-5.622-2.44-6.03-5.473.167.962 1.14 2.962 3.7 3.272-1.03-.634-3.015-2.71-2.72-5.934.37-4.03 4.126-5.38 5.79-5.436-1.143.182-3.467 1.17-3.611 3.678M12 14.572a2.572 2.572 0 1 0 0-5.144 2.572 2.572 0 0 0 0 5.143" clip-rule="evenodd"/></g><defs><linearGradient id="b" x1="4.465" x2="29.206" y1="4.162" y2="32.579" gradientUnits="userSpaceOnUse"><stop stop-color="#1A1E21"/><stop offset="1" stop-color="#06060A"/></linearGradient><clipPath id="a"><path fill="#fff" d="M0 0h24v24H0z"/></clipPath></defs></svg>
